Sources/FrostedUI/Resources/Icons.xcassets/closedCaptions16.imageset/closed-captions-16.svg

<svg width="16" height="16" viewBox="0 0 16 16" fill="none" xmlns="http://www.w3.org/2000/svg" data-fui-icon="true">
  <path
    d="M14.2222 3.11333C14.4667 3.11333 14.6667 3.31333 14.6667 3.55778V12.4467C14.6667 12.6911 14.4667 12.8911 14.2222 12.8911H1.77778C1.53333 12.8911 1.33333 12.6911 1.33333 12.4467V3.55778C1.33333 3.31333 1.53333 3.11333 1.77778 3.11333H14.2222ZM1.77778 1.78C0.797222 1.78 0 2.57722 0 3.55778V12.4467C0 13.4272 0.797222 14.2244 1.77778 14.2244H14.2222C15.2028 14.2244 16 13.4272 16 12.4467V3.55778C16 2.57722 15.2028 1.78 14.2222 1.78H1.77778ZM5.55556 6.66889C5.95 6.66889 6.30556 6.83833 6.55 7.11333C6.79444 7.38833 7.21667 7.41055 7.49167 7.16611C7.76667 6.92167 7.78889 6.49944 7.54444 6.22444C7.05833 5.68 6.34722 5.33556 5.55833 5.33556C4.08611 5.33556 2.89167 6.53 2.89167 8.00222C2.89167 9.47444 4.08611 10.6689 5.55833 10.6689C6.34722 10.6689 7.05833 10.3244 7.54444 9.78C7.78889 9.505 7.76667 9.08556 7.49167 8.83833C7.21667 8.59111 6.79722 8.61611 6.55 8.89111C6.30556 9.16611 5.95 9.33556 5.55556 9.33556C4.81944 9.33556 4.22222 8.73833 4.22222 8.00222C4.22222 7.26611 4.81944 6.66889 5.55556 6.66889ZM9.55556 8.00222C9.55556 7.26611 10.1528 6.66889 10.8889 6.66889C11.2833 6.66889 11.6389 6.83833 11.8833 7.11333C12.1278 7.38833 12.55 7.41055 12.825 7.16611C13.1 6.92167 13.1222 6.49944 12.8778 6.22444C12.3917 5.68 11.6806 5.33556 10.8917 5.33556C9.41945 5.33556 8.225 6.53 8.225 8.00222C8.225 9.47444 9.41945 10.6689 10.8917 10.6689C11.6806 10.6689 12.3917 10.3244 12.8778 9.78C13.1222 9.505 13.1 9.08556 12.825 8.83833C12.55 8.59111 12.1306 8.61611 11.8833 8.89111C11.6389 9.16611 11.2833 9.33556 10.8889 9.33556C10.1528 9.33556 9.55556 8.73833 9.55556 8.00222Z"
    fill="currentColor"
  />
</svg>

<svg xmlns="http://www.w3.org/2000/svg" width="16" height="16" fill="none" data-fui-icon="true" viewBox="0 0 16 16"><path fill="currentColor" d="M14.222 3.113c.245 0 .445.2.445.445v8.889c0 .244-.2.444-.445.444H1.778a.446.446 0 0 1-.445-.444v-8.89c0-.244.2-.444.445-.444zM1.778 1.78A1.78 1.78 0 0 0 0 3.558v8.889c0 .98.797 1.777 1.778 1.777h12.444A1.78 1.78 0 0 0 16 12.447v-8.89a1.78 1.78 0 0 0-1.778-1.777zm3.778 4.889c.394 0 .75.17.994.444a.667.667 0 0 0 .994-.889 2.667 2.667 0 1 0-1.986 4.444c.79 0 1.5-.344 1.986-.888a.668.668 0 0 0-.994-.889 1.334 1.334 0 1 1-.994-2.222m4 1.333a1.334 1.334 0 0 1 2.327-.889.667.667 0 0 0 .995-.889 2.667 2.667 0 1 0-1.986 4.444c.789 0 1.5-.344 1.986-.888a.668.668 0 0 0-.995-.889 1.334 1.334 0 0 1-2.328-.889"/></svg>
